X:409
T:Reel 409
M:4/4
K:Gmaj
L:1/8
B|d2GA BdBd|edef gdBG|G2GA BdBd| (3efg dc BGGB|d2Bd GdBd|cBAB cedc|Bdef gfgd| (3efg dc BGG|c|BAGd BAGB|cedc BAAc|BAGd BcdB|cedc BGGA|BGGA BcdG|cedB ceec| (3Bcd ef gfed|cedc BGG|
